dist/img/svg/whours.svg

<svg width="20" height="20" viewBox="0 0 20 20" fill="none" xmlns="http://www.w3.org/2000/svg">
<path d="M15.0195 1.34766C13.4831 0.449219 11.8099 0 10 0C8.1901 0 6.51693 0.449219 4.98047 1.34766C3.44401 2.23307 2.22656 3.44401 1.32812 4.98047C0.442708 6.51693 0 8.1901 0 10C0 11.8099 0.442708 13.4831 1.32812 15.0195C2.22656 16.556 3.44401 17.7734 4.98047 18.6719C6.51693 19.5573 8.1901 20 10 20C11.8099 20 13.4831 19.5573 15.0195 18.6719C16.556 17.7734 17.7669 16.556 18.6523 15.0195C19.5508 13.4831 20 11.8099 20 10C20 8.1901 19.5508 6.51693 18.6523 4.98047C17.7669 3.44401 16.556 2.23307 15.0195 1.34766ZM10 18.7695C9.04948 18.7695 8.125 18.6263 7.22656 18.3398C6.34115 18.0404 5.54036 17.6172 4.82422 17.0703C4.10807 16.5234 3.47656 15.8919 2.92969 15.1758C2.39583 14.4596 1.97917 13.6589 1.67969 12.7734C1.39323 11.875 1.25 10.9505 1.25 10C1.25 8.8151 1.47786 7.68229 1.93359 6.60156C2.40234 5.52083 3.02734 4.58984 3.80859 3.80859C4.58984 3.02734 5.52083 2.40885 6.60156 1.95312C7.68229 1.48438 8.8151 1.25 10 1.25C11.1849 1.25 12.3177 1.48438 13.3984 1.95312C14.4792 2.40885 15.4102 3.02734 16.1914 3.80859C16.9727 4.58984 17.5911 5.52083 18.0469 6.60156C18.5156 7.68229 18.75 8.8151 18.75 10C18.75 11.1849 18.5156 12.3177 18.0469 13.3984C17.5911 14.4792 16.9727 15.4167 16.1914 16.2109C15.4102 16.9922 14.4792 17.6172 13.3984 18.0859C12.3177 18.5417 11.1849 18.7695 10 18.7695ZM10.625 9.74609V3.75C10.625 3.58073 10.5599 3.4375 10.4297 3.32031C10.3125 3.1901 10.1693 3.125 10 3.125C9.83073 3.125 9.68099 3.1901 9.55078 3.32031C9.43359 3.4375 9.375 3.58073 9.375 3.75V10C9.375 10.1823 9.4401 10.332 9.57031 10.4492C9.57031 10.4492 9.57031 10.4557 9.57031 10.4688C9.58333 10.4818 9.58984 10.4883 9.58984 10.4883L12.6953 13.5742C12.8125 13.7044 12.9557 13.7695 13.125 13.7695C13.3073 13.7695 13.457 13.7109 13.5742 13.5938C13.6914 13.4635 13.75 13.3138 13.75 13.1445C13.75 12.9622 13.6914 12.8125 13.5742 12.6953L10.625 9.74609Z" fill="#C78E66"/>
</svg>

<svg width="20" height="20" viewBox="0 0 20 20" fill="none" xmlns="http://www.w3.org/2000/svg"><path d="M15.02 1.348A9.768 9.768 0 0 0 10 0C8.19 0 6.517.45 4.98 1.348A9.875 9.875 0 0 0 0 10c0 1.81.443 3.483 1.328 5.02a10.026 10.026 0 0 0 3.652 3.652A9.886 9.886 0 0 0 10 20a9.875 9.875 0 0 0 8.652-4.98A9.768 9.768 0 0 0 20 10c0-1.81-.45-3.483-1.348-5.02a9.728 9.728 0 0 0-3.633-3.632zM10 18.769c-.95 0-1.875-.143-2.773-.43a8.316 8.316 0 0 1-2.403-1.269 10.042 10.042 0 0 1-1.894-1.894 8.598 8.598 0 0 1-1.25-2.403A9.075 9.075 0 0 1 1.25 10a8.65 8.65 0 0 1 .684-3.398 8.924 8.924 0 0 1 1.875-2.793 8.659 8.659 0 0 1 2.793-1.856A8.452 8.452 0 0 1 10 1.25c1.185 0 2.318.234 3.398.703a8.658 8.658 0 0 1 2.793 1.856 8.66 8.66 0 0 1 1.856 2.793A8.452 8.452 0 0 1 18.75 10a8.452 8.452 0 0 1-.703 3.398 8.89 8.89 0 0 1-1.856 2.813 8.921 8.921 0 0 1-2.793 1.875A8.657 8.657 0 0 1 10 18.77zm.625-9.023V3.75a.556.556 0 0 0-.195-.43.556.556 0 0 0-.43-.195.617.617 0 0 0-.45.195.584.584 0 0 0-.175.43V10c0 .182.065.332.195.45v.019l.02.02 3.105 3.085c.117.13.26.196.43.196a.609.609 0 0 0 .45-.176.652.652 0 0 0 .175-.45.608.608 0 0 0-.176-.449l-2.949-2.949z" fill="#C78E66"/></svg>
